packages/blockchain-info-components/src/Images/img/grey-verified.svg

<svg fill="none" height="25" viewBox="0 0 25 25" width="25" xmlns="http://www.w3.org/2000/svg" xmlns:xlink="http://www.w3.org/1999/xlink"><clipPath id="a"><path d="m.6875.499878h24v24h-24z"/></clipPath><g clip-path="url(#a)"><path clip-rule="evenodd" d="m22.0257 9.87806 2.6618 3.03274-2.6618 3.0327.3709 4.0146-3.9382.8945-2.0618 3.4691-3.7091-1.5927-3.70909 1.6036-2.06182-3.4691-3.93818-.8945.37091-4.0255-2.66182-3.0327 2.66182-3.04365-.37091-4.01454 3.93818-.88364 2.06182-3.46909 3.70909 1.59273 3.7091-1.59273 2.0618 3.46909 3.9382.89454zm-13.34337 1.96624 2.28847 2.2885 5.8151-5.80961 1.6419 1.64186-7.4572 7.45715-3.93889-3.9389z" fill="#98a1b2" fill-rule="evenodd"/></g></svg>

<svg width="25" height="25" viewBox="0 0 25 25" fill="none" xmlns="http://www.w3.org/2000/svg">
<g clip-path="url(#clip0_364_10574)">
<path fill-rule="evenodd" clip-rule="evenodd" d="M22.0257 9.87806L24.6875 12.9108L22.0257 15.9435L22.3966 19.9581L18.4584 20.8526L16.3966 24.3217L12.6875 22.729L8.97841 24.3326L6.91659 20.8635L2.97841 19.969L3.34932 15.9435L0.6875 12.9108L3.34932 9.86715L2.97841 5.85261L6.91659 4.96897L8.97841 1.49988L12.6875 3.09261L16.3966 1.49988L18.4584 4.96897L22.3966 5.86351L22.0257 9.87806ZM8.68233 11.8443L10.9708 14.1328L16.7859 8.32319L18.4278 9.96505L10.9706 17.4222L7.03171 13.4833L8.68233 11.8443Z" fill="#98A1B2"/>
</g>
<defs>
<clipPath id="clip0_364_10574">
<rect width="24" height="24" fill="white" transform="translate(0.6875 0.499878)"/>
</clipPath>
</defs>
</svg>
